packages/crayons-core/src/components/icon/icon-assets/icons/indent-right.svg

<?xml version="1.0" encoding="UTF-8"?>
<svg width="14px" height="14px" viewBox="0 0 14 14" version="1.1" xmlns="http://www.w3.org/2000/svg" xmlns:xlink="http://www.w3.org/1999/xlink">
    <!-- Generator: Sketch 52.6 (67491) - http://www.bohemiancoding.com/sketch -->
    <title>icon/indent-right</title>
    <desc>Created with Sketch.</desc>
    <g id="Icons-✅" stroke="none" stroke-width="1" fill="none" fill-rule="evenodd">
        <g id="Icons" transform="translate(-819.000000, -1729.000000)" fill="currentColor">
            <g id="icon/indent-right" transform="translate(819.000000, 1729.000000)">
                <g id="indent-right">
                    <path d="M0.7,1.4 C0.313400681,1.39999999 1.47514498e-08,1.08659932 1.47514498e-08,0.7 C1.47514498e-08,0.313400681 0.313400681,8.14701651e-09 0.7,4.51860771e-14 L13.3,4.51860771e-14 C13.5500859,-3.72652531e-09 13.7811748,0.133419242 13.9062178,0.349999997 C14.0312608,0.566580752 14.0312608,0.833419248 13.9062178,1.05 C13.7811748,1.26658076 13.5500859,1.4 13.3,1.4 L0.7,1.4 Z M13.3,4.2 C13.6865993,4.2 14,4.51340068 14,4.9 C14,5.28659932 13.6865993,5.6 13.3,5.6 L5.3,5.6 C4.91340068,5.6 4.6,5.28659932 4.6,4.9 C4.6,4.51340068 4.91340068,4.2 5.3,4.2 L13.3,4.2 Z M13.3,8.4 C13.6865993,8.4 14,8.71340068 14,9.1 C14,9.48659932 13.6865993,9.8 13.3,9.8 L5.3,9.8 C4.91340068,9.8 4.6,9.48659932 4.6,9.1 C4.6,8.71340068 4.91340068,8.4 5.3,8.4 L13.3,8.4 Z M13.3,12.6 C13.6865993,12.6 14,12.9134007 14,13.3 C14,13.6865993 13.6865993,14 13.3,14 L0.7,14 C0.313400675,14 0,13.6865993 0,13.3 C0,12.9134007 0.313400675,12.6 0.7,12.6 L13.3,12.6 Z M0.35,9.18 C0.133750395,9.05278817 0.000694600169,8.82089093 4.04121181e-14,8.57 L4.04121181e-14,5.29 C0.000694600169,5.03910907 0.133750395,4.80721183 0.35,4.68 C0.5681182,4.56083293 0.8318818,4.56083293 1.05,4.68 L3.89,6.32 C4.10497482,6.44803972 4.23668196,6.67978341 4.23668196,6.93 C4.23668196,7.18021659 4.10497482,7.41196028 3.89,7.54 L1.05,9.18 C0.8318818,9.29916707 0.5681182,9.29916707 0.35,9.18 Z" id="Combined-Shape"></path>
                </g>
            </g>
        </g>
    </g>
</svg>

<svg viewBox="0 0 14 14"><path d="M.7 1.4A.7.7 0 0 1 .7 0h12.6a.7.7 0 0 1 0 1.4H.7zm12.6 2.8a.7.7 0 0 1 0 1.4h-8a.7.7 0 0 1 0-1.4h8zm0 4.2a.7.7 0 0 1 0 1.4h-8a.7.7 0 0 1 0-1.4h8zm0 4.2a.7.7 0 0 1 0 1.4H.7a.7.7 0 0 1 0-1.4h12.6zM.35 9.18A.71.71 0 0 1 0 8.57V5.29a.71.71 0 0 1 .35-.61.73.73 0 0 1 .7 0l2.84 1.64a.71.71 0 0 1 0 1.22L1.05 9.18a.73.73 0 0 1-.7 0z" fill="currentColor" fill-rule="evenodd"/></svg>
